images/themes/default/classification_methods/mClassificationEqualCount.svg

<svg height="16" width="16" xmlns="http://www.w3.org/2000/svg"><rect fill="#fff" fill-opacity=".502" height="16" rx="2" width="16"/><path d="m.5 2v12m15-12v12m-3-12v12m-9-12v12" fill="#6389b8" stroke="#6389b8"/><path d="m1 4h2v2h-2zm0 3h2v2h-2zm0 3h2v2h-2zm6-6h2v2h-2zm6 0h2v2h-2zm0 3h2v2h-2zm-6 0h2v2h-2zm0 3h2v2h-2zm6 0h2v2h-2z"/><g fill="none" stroke="#d3c02d"><path d="m2 4v-3.5h12v3.5m-6-3.5v3.5"/><path d="m14 12v3.5h-12v-3.5m6 3.5v-3.5"/></g></svg>

<svg xmlns="http://www.w3.org/2000/svg" height="16" width="16"><rect width="16" height="16" rx="2" ry="2" fill="#fff" fill-opacity=".502"/><path d="M.5 2v12M15.5 2v12M12.5 2v12M3.5 2v12" fill="#6389b8" stroke="#6389b8"/><path d="M1 4h2v2H1zM1 7h2v2H1zM1 10h2v2H1zM7 4h2v2H7zM13 4h2v2h-2zM13 7h2v2h-2zM7 7h2v2H7zM7 10h2v2H7zM13 10h2v2h-2z"/><g fill="none" stroke="#d3c02d"><path d="M2 4V.5h12V4M8 .5V4"/></g><g fill="none" stroke="#d3c02d"><path d="M14 12v3.5H2V12M8 15.5V12"/></g></svg>
